img/svg/icon-font/eye-closed.svg

<svg width="22" height="22" viewBox="0 0 22 22" fill="none" xmlns="http://www.w3.org/2000/svg">
<path fill-rule="evenodd" clip-rule="evenodd" d="M2.74332 7.65054C6.54925 13.3594 14.9381 13.3594 18.7441 7.65054L19.5589 6.42827C19.8535 5.98642 20.4505 5.86702 20.8923 6.16159C21.3342 6.45616 21.4536 7.05314 21.159 7.49499L20.3441 8.71725C20.278 8.8165 20.2107 8.91431 20.1422 9.01068L21.7184 10.4095C22.0939 10.785 22.0939 11.3938 21.7184 11.7693C21.3429 12.1448 20.7341 12.1448 20.3586 11.7693L18.9066 10.4807C18.2067 11.1858 17.4349 11.7804 16.6137 12.2645L17.3949 14.2159C17.5766 14.7149 17.3193 15.2667 16.8203 15.4483C16.3212 15.63 15.7695 15.3727 15.5879 14.8737L14.8773 13.0988C13.8543 13.4879 12.785 13.7268 11.7051 13.8158V15.7018C11.7051 16.2328 11.2746 16.6633 10.7436 16.6633C10.2126 16.6633 9.78207 16.2328 9.78207 15.7018V13.8157C8.70426 13.727 7.63699 13.4887 6.6157 13.1009L5.89832 14.9167C5.7167 15.4157 5.16493 15.673 4.66592 15.4914C4.16691 15.3097 3.90962 14.758 4.09125 14.259L4.87817 12.2672C4.16157 11.8451 3.48252 11.339 2.85597 10.7487L1.64143 11.8619C1.26593 12.2374 0.657124 12.2374 0.281624 11.8619C-0.0938747 11.4864 -0.0938748 10.8776 0.281624 10.5021L1.57197 9.31945C1.42425 9.12497 1.28124 8.92424 1.14325 8.71725L0.328402 7.49499C0.0338363 7.05314 0.153232 6.45616 0.595081 6.16159C1.03693 5.86702 1.63391 5.98642 1.92848 6.42827L2.74332 7.65054Z" fill="#4C51CB"/>
</svg>

<svg width="22" height="22" fill="none" xmlns="http://www.w3.org/2000/svg"><path fill-rule="evenodd" clip-rule="evenodd" d="M2.743 7.65c3.806 5.71 12.195 5.71 16.001 0l.815-1.222a.962.962 0 011.6 1.067l-.815 1.222c-.066.1-.133.197-.202.294l1.576 1.399a.962.962 0 11-1.36 1.36l-1.451-1.29c-.7.706-1.472 1.3-2.293 1.784l.78 1.952a.961.961 0 11-1.806.658l-.71-1.775a11.623 11.623 0 01-3.173.717v1.886a.962.962 0 01-1.923 0v-1.886a11.603 11.603 0 01-3.166-.715l-.718 1.816a.962.962 0 01-1.807-.658l.787-1.992a11.339 11.339 0 01-2.022-1.518l-1.215 1.113a.962.962 0 01-1.36-1.36L1.573 9.32a12 12 0 01-.429-.602L.328 7.495a.962.962 0 011.6-1.067l.815 1.223z" fill="#4C51CB"/></svg>
